assets/icons/qvision/schedule_send.svg

<svg xmlns="http://www.w3.org/2000/svg" height="24" viewBox="0 0 24 24" width="24"><path d="M0 0h24v24H0V0z" fill="none"/><path d="M16.5 12.5H15v4l3 2 .75-1.23-2.25-1.52V12.5zM16 9L2 3v7l9 2-9 2v7l7.27-3.11C10.09 20.83 12.79 23 16 23c3.86 0 7-3.14 7-7s-3.14-7-7-7zm0 12c-2.75 0-4.98-2.22-5-4.97v-.07c.02-2.74 2.25-4.97 5-4.97 2.76 0 5 2.24 5 5S18.76 21 16 21z"/></svg>

<svg width="24" height="24" viewBox="0 0 24 24" fill="none" xmlns="http://www.w3.org/2000/svg">
<g clip-path="url(#clip0_147_4676)">
<path d="M16.5 12.5H15V16.5L18 18.5L18.75 17.27L16.5 15.75V12.5ZM16 9L2 3V10L11 12L2 14V21L9.27 17.89C10.09 20.83 12.79 23 16 23C19.86 23 23 19.86 23 16C23 12.14 19.86 9 16 9ZM16 21C13.25 21 11.02 18.78 11 16.03V15.96C11.02 13.22 13.25 10.99 16 10.99C18.76 10.99 21 13.23 21 15.99C21 18.75 18.76 21 16 21Z" fill="#323232"/>
</g>
<defs>
<clipPath id="clip0_147_4676">
<rect width="24" height="24" fill="white"/>
</clipPath>
</defs>
</svg>
